!!! OTL: Berkowitz456
!!! Chapter: 1
!!! Section: IV
!!! Page: 114
!!! Mode: 
!!! Encoder: DJB
**kern
*staff1
*I"Piano
=1-
*clefC4
*k[b-e-a-d-]
*f:
*M6/8
8.F\L
16c\K
8A-\J
8B-\L
8c\
8d-\J
=2
8.e-\L
16d-\L
16c\
16Bn\JJ
8.c\L
16A-\K
8F\J
=3
4G/
8B-\
8.d-\L
16f\L
16e-\
16d-\JJ
=4
8.c\L
16d-\L
16c\
16Bn\JJ
4c\
8G/
=5
8.c\L
16d-\K
8e-\J
8g\L
8f\
8e-\J
=6
4dn\
16f\LL
16e-\JJ
4d\
16e-\LL
16d\JJ
=7
!!linebreak:original
8.c\L
16e-\K
8c\J
8dn\L
8c\
8Bn\J
=8
2.c\
=9
8.F\L
16c\K
8A-\J
8B-\L
8c\
8d-\J
=10
8.e-\L
16d-\L
16c\
16Bn\JJ
8.c\L
16A-\K
8F\J
=11
4d-\
8f\
8.c\L
16B-\L
16A-\
16G\JJ
=12
4.F/
8r
4r
==
*-
